!!!!SEGMENT: pl-wtm--r-2548--012_hertz-michal--jak-wam-sie-podoba-no-12.krn
!!!cenid: 18xx:3119
!!!COM: Hertz, Michał
!!!COM-rismID: pe41023359
!!!CDT: 1844/09/28-~1918
!!!CNT: Polish
!!!GTL: Jak wam się podoba
!!!OTL: No. 12
!!!OMV: 012
!!!PDT:
!!!AGN:
!!!SMS-siglum: PL-Wtm
!!!SMS-shelfmark: R 2548
!!!SMS-shelfwork: 001-012 G
!!!SMS-variant:
!!!SMS-altvar:
!!!NIFC-rismSourceID: 1001082244
!!!NIFC-rismChildID: 1001082244
!!!NIFC-islandoraID:
!!!URL-pdf-islandora:
!!!URL-scan:
!!!ONB-nifc:
!!!OMD: Moderato. Tempo di Menuetto.
!!!AIN: 2 piano
!!!key: F
**kern	**kern	**dynam
*part2	*part1	*part1
*staff2	*staff1	*
*I"[Piano]	*I"[Piano]	*
*Ipiano	*Ipiano	*
*ICklav	*ICklav	*
*clefF4	*clefG2	*
*k[b-]	*k[b-]	*
*F:	*F:	*
*M3/4	*M3/4	*
*all\right	*all\right	*
=1	=1	=1
*^	*^	*^
*2\right	*	*	*	*	*
!	!	!	!	!LO:DY:rj	!
[<2.C\ [>2.c	8r	4r	4r	p	.
.	8C#X/	.	.	.	.
!	!	!	!	!LO:DY:a:rj	!LO:HP:b=2
.	4D'\	[2cc/	4r	p	<
.	4D#X'\	.	8r	.	.
.	.	.	8bn\	.	.
=2	=2	=2	=2	=2	=2
2.C\_<	4.c/]	2.cc/_	(4b-X\	.	.
.	.	.	8a\L)	.	.
!	!	!	!	!LO:HP:a	!
.	(>8c\L	.	(>8a\ 8cc	<	.
.	8c\ 8d	.	8g#X\ 8bn	.	.
.	8c\J) 8e	.	8gn\J) 8b-X	.	.
=3	=3	=3	=3	=3	=3
2.C\_< [>2.c	8f/	8cc/]	8a\	[	[
.	8ryy	8r	8ryy	.	.
!	!	!	!	!LO:HP:a	!LO:DY:rj
.	2ryy	((4.d/ 4.f	2ryy	<	p
.	.	8d/)) 8f#X	.	[	.
*v	*v	*	*	*v	*v
*	*v	*v	*
=4	=4	=4
8C\] 8c]	8e/ 8g	.
8r	8r	.
4c\	4e/ 4g#X	sf
4r;	4r;	.
!!LO:LB:g=original
=||5	=||5	=||5
*	*^	*
*	*	*2\right	*
4r	4.cc/	2.a\	pp
(4f\	.	.	.
.	(<8cc/L	.	.
4F\)	8ff/	.	.
.	8a/J)	.	.
=6	=6	=6	=6
4G\	(<8b-/L	2f\	.
.	8a/J)	.	.
4r	[2b-/	.	.
4G\	.	4f\	.
=7	=7	=7	=7
(4c\	8b-/L]	[2.e\	.
.	(<8a/	.	.
4C/)	8b-/	.	.
.	8dd/	.	.
4c\	8cc/	.	.
.	8b-/J)	.	.
=8	=8	=8	=8
4F\	(<8a/L	2e\]	.
.	8g/J)	.	.
4r	[2a/	.	.
4F\	.	4e\	.
!!LO:LB:g=original
=9	=9	=9	=9
(4B-\	8a/L]	[<2.d\	.
.	(<8g/	.	.
4BB-/)	8a/	.	.
.	8cc/	.	.
4B-\	8b-/	.	.
.	8a/J)	.	.
=10	=10	=10	=10
4E\	(<8g/L	2d\]	.
.	8f/J)	.	.
4r	(<4.g/	.	.
(8E\L	.	4d\	.
8F\J)	8a/)	.	.
=11	=11	=11	=11
(4G\	(<8b-/L	2d\	.
.	8a/	.	.
4GG/)	8b-/	.	<
.	8cc/	.	.
4G\	8dd/	4f\	.
.	8b-/J)	.	[[
*	*v	*v	*
=12	=12	=12
2c\	((4f/ 4a	.
.	8e/L)) 8g	.
.	(8f/ 8a	>
4C/	8g/ 8b-	.
.	8g#X/J) 8bn	]]
!!LO:LB:g=original
=13	=13	=13
*^	*^	*
4r	4F\	(4.cc/	2.a\	p
[2f/	4r	.	.	.
.	.	8cc/	.	.
.	4F\	8ff/L	.	.
.	.	8a/J)	.	.
*	*	*v	*v	*
=14	=14	=14	=14
2.f/]	4G\	(8b-\L	.
.	.	8a\J)	.
.	4r	2b-\	.
.	4G\	.	.
*v	*v	*	*
=15	=15	=15
*	*^	*
(4c\	(<8b-/L	[<2.e\	.
.	8a/	.	.
4C/)	8b-/	.	.
.	8dd/	.	.
(8D\L	8cc/	.	.
8E\J)	8b-/J)	.	.
=16	=16	=16	=16
4F\	(<8a/L	2.e\]	.
.	8g/J)	.	.
4r	[2a/	.	.
4F\	.	.	.
!!LO:PB:g=original
=17	=17	=17	=17
(4B-\	(<8a/L]	[<2.d\	.
.	8g/	.	.
4BB-/)	8a/	.	.
.	8cc/	.	.
(8C\L	8b-/	.	.
8D\J)	8a/J)	.	.
=18	=18	=18	=18
*^	*	*	*
4E\	4r	(<8g/L	2.d\_	.
.	.	8f/J)	.	.
4r	(>4.B-/	(>4.g/	.	.
(>8E\L	.	.	.	.
8F\J)	8A/)	8a/)	.	.
*v	*v	*	*	*
=19	=19	=19	=19
(4G\	(<8b-/L	4d\]	.
.	8cc/	.	<
4GG/)	8cc#X/	4f\ 4b-	.
.	8dd/	.	.
4G\	8.bn/ 8.ff	8.a\L	[
.	16ee/Jk)	16g\Jk	>
=20	=20	=20	=20
(4c\	4cc/	4e\	]
4C/)	8r	8r	.
.	(<8Bn/L 8bn	8ryy	p
4r	8c/ 8cc	4ryy	.
.	8c#X/J) 8cc#X	.	.
!!LO:LB:g=original
=21	=21	=21	=21
4CC/	(<8dd/L	[<2.d\	.
.	8f#X/J)	.	.
8r	(>4.g/	.	.
8C/	.	.	.
(8G\L 8B-	.	.	.
8C\J)	8a/)	.	.
=22	=22	=22	=22
(4G\ 4B-	(<8b-/L	2d\]	.
.	8cc/	.	<
4C/)	8cc#X/	.	.
.	8dd/J)	.	.
[4G\ [4B-	(8.g\L 8.gg	4ryy	.
.	16f\Jk) 16ff	.	[
*	*v	*v	*
=23	=23	=23
*^	*	*
4G\] 4B-]	4ryy	(8f\L 8ff	.
.	.	8e\J) 8ee	>
[<2B-/ [>2c	8C\L	8r	]
.	(>8C\	(8e'\L 8ee	.
.	8D\	8f'\ 8ff	.
.	8D#X\J)	8f#X'\J) 8ff#X	.
=24	=24	=24	=24
4B-/] 4c]	4E\	(8a\L 8aa	.
.	.	8g\J) 8gg	>
4C/	2ryy	8r	]
.	.	(8Bn\L 8bn	p
4r	.	8c\ 8cc	.
.	.	8c#X\J) 8cc#X	.
*v	*v	*	*
!!LO:LB:g=original
=25	=25	=25
*	*^	*
4CC/	(<8dd/L	[2.d\	.
.	8f#X/J)	.	.
8r	(4.g/	.	.
8C/	.	.	.
(8G\L 8B-	.	.	.
8C\J)	8a/)	.	.
=26	=26	=26	=26
((4G\ 4B-	(<8b-/L	2d\]	.
.	8cc/	.	.
4C/))	8cc#X/	.	<
.	8dd/J)	.	.
.	8qa/ 8qaa	.	.
[4G\ [4B-	(8.g\L 8.gg	4ryy	.
.	16f\Jk) 16ff	.	[
*	*v	*v	*
=27	=27	=27
*^	*	*
4G\] 4B-]	4ryy	(8f\L 8ff	.
.	.	8e\J) 8ee	>
[<2B-/ [>2c	8C\L	8r	]
!	!	!	!LO:HP:a
.	(>8C\	(8e'\L 8ee	<
.	8D\	8f'\ 8ff	.
.	8D#X\J)	8f#X'\J) 8ff#X	[
=28	=28	=28	=28
!	!	!	!LO:HP:a
2B-/] 2c]	4E\	(8a\L 8aa	>
.	.	8g\ 8gg	.
.	(>8F\L	8f\ 8ff	.
.	8G\J)	8e\ 8ee	.
4r	4ryy	8d\) 8dd	.
.	.	16r	]
.	.	16c\Jk 16cc	p
*v	*v	*	*
!!LO:LB:g=original
=29	=29	=29
*	*^	*
4r	4.cc/	4r	.
(4f\	.	2a\	.
.	8cc/	.	.
4F\)	(<8ff/L	.	.
.	8a/J)	.	.
=30	=30	=30	=30
*^	*	*	*
[2.G/	4.G\	(<8b-/L	2f\	.
.	.	8a/J)	.	.
.	.	[2b-/	.	.
.	8GG\	.	.	.
.	(>8AA\L	.	4d\	.
.	8BB-\J)	.	.	.
=31	=31	=31	=31	=31
2.G/]	(>4C\	8b-/L]	[<2.e\	.
.	.	(<8a/	.	.
.	8CC\L)	8b-/	.	.
.	(>8C\	8dd/	.	.
.	8D\	8cc/	.	.
.	8E\J)	8b-/J)	.	.
=32	=32	=32	=32	=32
[2.F/	4.F\	(<8a/L	2e\]	.
.	.	8g/J)	.	.
.	.	[2a/	.	.
.	8FF\	.	.	.
.	(>8GG\L	.	4c\	.
.	8AA\J)	.	.	.
!!LO:LB:g=original
=33	=33	=33	=33	=33
2.F/]	(>4BB-\	8a/L]	[2.d\	.
.	.	(<8g/	.	.
.	8BBB-\L)	8a/	.	.
.	(>8BB-\	8cc/	.	.
.	8C\	8b-/	.	.
.	8D\J)	8a/J)	.	.
*v	*v	*	*	*
=34	=34	=34	=34
2E\	(<8g/L	2d\]	.
.	8f/J)	.	.
.	(4.g/	.	.
((4C\ 4c	.	(>4e\	.
.	8a/)	.	.
=35	=35	=35	=35
4G\))	(<8b-/L	4d\)	.
.	8cc/	.	.
8r	8cc#X/	4f\ 4b-	.
8GG\ 8G	8dd/	.	.
4CC/ 4C	8.ff/	4g\ 4b-	.
.	16ee/Jk)	.	.
*	*v	*v	*
=36	=36	=36
2FF\ 2F	((4f\ 4a 4ff	.
.	4A/)) 4f	.
4r	4r	.
==	==	==
*-	*-	*-
!!!system-decoration: {(s1,s2)}
!!!RDF**kern: < = below
!!!RDF**kern: > = above
!!!ENC: Anastazja Marusiak
!!!END: 2021-11-03
!!!ENC: Marta Chmielewska
!!!END: 2021-11-05
!!!YEC: Copyright 2022 Narodowy Instytut Fryderyka Chopina (https://polishscores.org)
!!!YEM: License CC-BY-4.0 (https://creativecommons.org/licenses/by/4.0)
